public/logo/logo-white.svg

<svg fill="none" height="151" viewBox="0 0 792 151" width="792" xmlns="http://www.w3.org/2000/svg" xmlns:xlink="http://www.w3.org/1999/xlink"><mask id="a" height="151" maskUnits="userSpaceOnUse" width="151" x="0" y="0"><path d="m0 0h150.208v150.057h-150.208z" fill="#fff"/></mask><mask id="b" height="150" maskUnits="userSpaceOnUse" width="151" x="0" y="0"><path d="m74.8698 0h.3021c41.3491 0 74.8701 33.5208 74.8701 74.875 0 41.349-33.521 74.87-74.8701 74.87h-.3021c-41.349 0-74.8698-33.521-74.8698-74.87 0-41.3542 33.5208-74.875 74.8698-74.875z" fill="#fff"/></mask><g fill="#fff"><path d="m214.297 112.677c15.588 0 25.885-10.802 25.885-25.8857v-47.0833h-15.187v46.2708c0 7.4375-4.38 12.125-10.698 12.125-6.625 0-11.011-4.7916-11.011-12.125v-1.8385h-15.286v2.651c0 15.0837 11.01 25.8857 26.297 25.8857z"/><path d="m284.712 112.677c16.818 0 29.453-11.719 29.453-28.4325v-44.5365h-15.489v43.8229c0 8.8646-5.813 14.5729-13.964 14.5729-8.255 0-14.062-5.7083-14.062-14.5729v-43.8229h-15.49v44.5365c0 16.7135 12.636 28.4325 29.552 28.4325z"/><path d="m353.398 112.473c14.776 0 27.006-7.437 27.006-22.8278 0-16-13.657-19.3646-24.459-22.1146-7.646-1.8333-13.76-3.3646-13.76-8.3542 0-4.6927 4.995-6.8281 9.989-6.8281 5.808 0 10.907 2.849 10.907 9.0677h15.182c0-14.2656-9.271-23.0312-25.682-23.0312-15.797 0-25.886 7.7448-25.886 21.401 0 15.3906 13.047 18.5469 23.849 21.1979 7.745 1.7292 14.266 3.2604 14.266 8.8646 0 5.3021-5.703 8.3594-11.516 8.3594-6.317 0-12.026-3.3646-12.026-10.1927h-15.588c0 15.286 11.312 24.458 27.718 24.458z"/><path d="m441.952 39.708h-55.13v14.3698h19.87v56.9692h15.391v-56.9692h19.869z"/><path d="m523.987 111.047h16.818l-28.844-71.339h-14.573l-28.021 71.339h16.406l4.891-13.4536h28.333zm-19.156-52.4848 9.375 25.5781h-18.75z"/><path d="m601.133 39.708h-26.906v71.339h26.906c20.995 0 36.177-14.9796 36.177-35.6671s-15.182-35.6719-36.177-35.6719zm-.307 57.0729h-11.209v-42.7031h11.209c12.229 0 20.687 8.6615 20.687 21.3021 0 12.4323-8.458 21.401-20.687 21.401z"/><path d="m665.129 96.7809v-14.6771h24.766v-13.9635h-24.766v-14.1615h27.411v-14.2708h-42.802v71.339h43.927v-14.2661z"/><path d="m789.842 26h-19.781c-.25 0-.99.125-1.115.3698l-23.37 33.0156-10.39-14.4687h-23c7.296 10.2656 14.468 20.5312 21.765 30.5468l-33.885 47.6095c-.74.865-.245 1.854.989 1.854h19.787c.245 0 .989-.125 1.114-.37l23.62-33.0205 10.261 14.4685h23c-7.292-10.2602-14.589-20.5258-21.886-30.5415l34.13-47.6093c.62-.8646.125-1.8542-1.239-1.8542z"/></g><g mask="url(#a)"><g mask="url(#b)"><path d="m0 0h150.208v149.51h-150.208z" fill="#fff"/></g></g><path d="m119.958 23.3184h-20.1769c-.25 0-1.0104.125-1.1354.375l-23.8281 33.6666-10.5938-14.75h-23.4531c7.4375 10.4636 14.7552 20.9271 22.1927 31.1407l-34.5469 48.5473c-.7604.88-.2552 1.89 1.0052 1.89h20.1771c.25 0 1.0052-.125 1.1354-.38l24.0834-33.6667 10.4635 14.7547h23.4529c-7.437-10.4631-14.88-20.9318-22.3175-31.1453l34.8025-48.5417c.63-.8854.125-1.8906-1.261-1.8906z" fill="#000"/></svg>

<svg width="792" height="151" viewBox="0 0 792 151" fill="none" xmlns="http://www.w3.org/2000/svg">
<path d="M214.297 112.677C229.885 112.677 240.182 101.875 240.182 86.7913V39.708H224.995V85.9788C224.995 93.4163 220.615 98.1038 214.297 98.1038C207.672 98.1038 203.286 93.3122 203.286 85.9788V84.1403H188V86.7913C188 101.875 199.01 112.677 214.297 112.677Z" fill="white"/>
<path d="M284.712 112.677C301.53 112.677 314.165 100.958 314.165 84.2445V39.708H298.676V83.5309C298.676 92.3955 292.863 98.1038 284.712 98.1038C276.457 98.1038 270.65 92.3955 270.65 83.5309V39.708H255.16V84.2445C255.16 100.958 267.796 112.677 284.712 112.677Z" fill="white"/>
<path d="M353.398 112.473C368.174 112.473 380.404 105.036 380.404 89.6452C380.404 73.6452 366.747 70.2806 355.945 67.5306C348.299 65.6973 342.185 64.166 342.185 59.1764C342.185 54.4837 347.18 52.3483 352.174 52.3483C357.982 52.3483 363.081 55.1973 363.081 61.416H378.263C378.263 47.1504 368.992 38.3848 352.581 38.3848C336.784 38.3848 326.695 46.1296 326.695 59.7858C326.695 75.1764 339.742 78.3327 350.544 80.9837C358.289 82.7129 364.81 84.2441 364.81 89.8483C364.81 95.1504 359.107 98.2077 353.294 98.2077C346.977 98.2077 341.268 94.8431 341.268 88.015H325.68C325.68 103.301 336.992 112.473 353.398 112.473Z" fill="white"/>
<path d="M441.952 39.708H386.822V54.0778H406.692V111.047H422.083V54.0778H441.952V39.708Z" fill="white"/>
<path d="M523.987 111.047H540.805L511.961 39.708H497.388L469.367 111.047H485.773L490.664 97.5934H518.997L523.987 111.047ZM504.831 58.5622L514.206 84.1403H495.456L504.831 58.5622Z" fill="white"/>
<path d="M601.133 39.708H574.227V111.047H601.133C622.128 111.047 637.31 96.0674 637.31 75.3799C637.31 54.6924 622.128 39.708 601.133 39.708ZM600.826 96.7809H589.617V54.0778H600.826C613.055 54.0778 621.513 62.7393 621.513 75.3799C621.513 87.8122 613.055 96.7809 600.826 96.7809Z" fill="white"/>
<path d="M665.129 96.7809V82.1038H689.895V68.1403H665.129V53.9788H692.54V39.708H649.738V111.047H693.665V96.7809H665.129Z" fill="white"/>
<path d="M789.842 26H770.061C769.811 26 769.071 26.125 768.946 26.3698L745.576 59.3854L735.186 44.9167H712.186C719.482 55.1823 726.654 65.4479 733.951 75.4635L700.066 123.073C699.326 123.938 699.821 124.927 701.055 124.927H720.842C721.087 124.927 721.831 124.802 721.956 124.557L745.576 91.5365L755.837 106.005H778.837C771.545 95.7448 764.248 85.4792 756.951 75.4635L791.081 27.8542C791.701 26.9896 791.206 26 789.842 26Z" fill="white"/>
<mask id="mask0_1_125" style="mask-type:luminance" maskUnits="userSpaceOnUse" x="0" y="0" width="151" height="151">
<path d="M0 0H150.208V150.057H0V0Z" fill="white"/>
</mask>
<g mask="url(#mask0_1_125)">
<mask id="mask1_1_125" style="mask-type:luminance" maskUnits="userSpaceOnUse" x="0" y="0" width="151" height="150">
<path d="M74.8698 0H75.1719C116.521 0 150.042 33.5208 150.042 74.875C150.042 116.224 116.521 149.745 75.1719 149.745H74.8698C33.5208 149.745 0 116.224 0 74.875C0 33.5208 33.5208 0 74.8698 0Z" fill="white"/>
</mask>
<g mask="url(#mask1_1_125)">
<path d="M0 0H150.208V149.51H0V0Z" fill="white"/>
</g>
</g>
<path d="M119.958 23.3184H99.7811C99.5311 23.3184 98.7707 23.4434 98.6457 23.6934L74.8176 57.36L64.2238 42.61H40.7707C48.2082 53.0736 55.5259 63.5371 62.9634 73.7507L28.4165 122.298C27.6561 123.178 28.1613 124.188 29.4217 124.188H49.5988C49.8488 124.188 50.604 124.063 50.7342 123.808L74.8176 90.1413L85.2811 104.896H108.734C101.297 94.4329 93.854 83.9642 86.4165 73.7507L121.219 25.209C121.849 24.3236 121.344 23.3184 119.958 23.3184Z" fill="black"/>
</svg>
